svgs/amazon_music.svg

<svg width="192" height="192" viewBox="0 0 192 192" fill="none" xmlns="http://www.w3.org/2000/svg">
<path d="M22 110H46C50.4183 110 54 113.582 54 118V154C54 158.418 50.4183 162 46 162H30C25.5817 162 22 158.418 22 154V110Z" stroke="black" stroke-width="12"/>
<path d="M138 118C138 113.582 141.582 110 146 110H170V154C170 158.418 166.418 162 162 162H146C141.582 162 138 158.418 138 154V118Z" stroke="black" stroke-width="12"/>
<path d="M22 121.5V104C22 63.1309 55.1309 30 96 30C136.869 30 170 63.1309 170 104V121.5" stroke="black" stroke-width="12"/>
</svg>

<svg width="192" height="192" fill="none" xmlns="http://www.w3.org/2000/svg"><path d="M22 110h24a8 8 0 0 1 8 8v36a8 8 0 0 1-8 8H30a8 8 0 0 1-8-8v-44zM138 118a8 8 0 0 1 8-8h24v44a8 8 0 0 1-8 8h-16a8 8 0 0 1-8-8v-36z" stroke="#000" stroke-width="12"/><path d="M22 121.5V104c0-40.87 33.13-74 74-74 40.869 0 74 33.13 74 74v17.5" stroke="#000" stroke-width="12"/></svg>
